X:361
T:Mr Lane's Trumpet Minuet. (p)1696.PLFD.361
M:3/4
L:1/4
Q:3/4=50
S:Playford, Dancing Master,9th Ed,1st Supp.,1696.
O:England
N:"To be danc'd with the minuet step".
H:1696.
Z:Chris Partington
K:C
EEG|cec|ecf/e/|d/c/B/A/G|EEG|cec|ece|d3:|
|:dgB|A2G|ccB/c/|ddc/d/|e/d/c/d/e/f/|g3|
G/F/G/A/G|GEG|cG/A/G|GEG|e3|d/c/d/e/d|cc/d/c/d/|c3:|
